img/real-estate/locations/city.svg

<svg xmlns="http://www.w3.org/2000/svg" width="80" height="80" fill="none" xmlns:v="https://vecta.io/nano"><path fill="#5d3cf2" fill-opacity=".1" d="M0 0h80v80H0z"/><g clip-path="url(#A)" fill="#5d3cf2"><path d="M19.5529 54.5222c.8546 0 1.657-.2976 2.2906-.835 1.1116.4954 2.3169.7767 3.5385.8263v3.6991c-5.1009 2.0201-7.5889 4.0233-7.7123 4.124-.307.2508-.4229.6675-.2898 1.041s.4867.6225.883.6225h25.3223c.5178 0 .9375-.4197.9375-.9375s-.4197-.9375-.9375-.9375H21.4547c1.0097-.5624 2.3189-1.219 3.9338-1.8903.053.4675.4493.831.931.831.5178 0 .9375-.4197.9375-.9375v-.6225c6.967-2.5477 14.4578-3.5468 21.8502-3.5933 4.6234-.0288 9.2476.3206 13.8253.9622.5537.0776 1.0676-.3686 1.0676-.9287V20.8086c0-.5178-.4197-.9375-.9375-.9375H48.6062c-.5177 0-.9375.4197-.9375.9375v33.2507l-2.3859.0895V31.692c0-.5178-.4197-.9375-.9375-.9375h-2.5931v-1.9884c0-.5178-.4197-.9375-.9375-.9375h-6.5259c-.5178 0-.9375.4197-.9375.9375v1.9884h-2.5932c-.5178 0-.9375.4197-.9375.9375v4.4469c-1.2319-.5728-2.604-.8933-4.0497-.8933-5.3146 0-9.6383 4.3238-9.6383 9.6384 0 1.3011.2534 2.5556.7542 3.7387-.5645.6428-.8868 1.477-.8868 2.3466 0 1.9591 1.5938 3.5529 3.5529 3.5529h0zm9.2752 2.4691c-.5445.1719-1.0677.3465-1.5711.5228v-3.107c.8869-.138 1.7495-.3997 2.5636-.7769v3.0594l-.9925.3017h0zm20.8094-2.9565h-.0938v-3.56H62.125v4.3987c-4.1391-.5377-8.3128-.8387-12.4875-.8387h0zM62.125 21.7461v26.8537H49.5437V21.7461H62.125zM31.6956 32.6295h2.5932c.5177 0 .9375-.4197.9375-.9375v-1.9884h4.6509v1.9884c0 .5178.4197.9375.9375.9375h2.5931v21.6391c-3.9467.304-7.8781.911-11.7122 1.9019v-2.2099c1.828.4163 3.7781-.2384 4.9871-1.6718h3.7925c.5178 0 .9375-.4197.9375-.9375s-.4197-.9375-.9375-.9375h-2.795c.1239-.4372.1917-.8978.1917-1.3743 0-.6725-.1334-1.3235-.3801-1.9221h2.9834c.5178 0 .9375-.4197.9375-.9375s-.4197-.9375-.9375-.9375h-4.326c-.2286-.2003-.4762-.3814-.7416-.5395-.0174-.9346-.1711-1.867-.4567-2.7571h5.5243c.5178 0 .9375-.4197.9375-.9375s-.4197-.9375-.9375-.9375h-5.9751c-.1214 0-.2371.0239-.3436.0659-.6222-1.1007-1.4641-2.0772-2.4609-2.8549v-4.6523zM18.8599 48.419c-.5656-1.1033-.8523-2.2926-.8523-3.535 0-4.2808 3.4826-7.7634 7.7633-7.7634 4.3614 0 7.9449 3.7586 7.7544 8.1079-.016.3636.1797.7012.4976.8695.85.4507 1.5161 1.0251 1.8216 1.9728.3283 1.0179.1078 2.1609-.573 2.9856-1.0734 1.3001-3.0421 1.5261-4.3774.4997-.3085-.2371-.7312-.2591-1.0626-.0553-.7937.4883-1.6659.8256-2.5745 1.0023v-.9884-4.5938c0-.5205.2027-1.0099.5709-1.3781l.8373-.8373c.3661-.3661.3661-.9598 0-1.3259s-.9597-.3661-1.3259 0l-.8373.8373c-.7223.7223-1.12 1.6826-1.12 2.7039v.8889l-1.3512-1.3511c-.3661-.3661-.9597-.3661-1.3258 0s-.3661.9597 0 1.3258l1.9321 1.9321c.4804.4803.7448 1.1189.7448 1.7982v1.1218c-1.1526-.0579-2.2844-.3716-3.295-.9177-.4029-.2178-.9182-.1052-1.1938.2599-.3207.4248-.8093.6684-1.3402.6684-.9252 0-1.6779-.7527-1.6779-1.6779 0-.5374.2613-1.0466.6989-1.3621.3758-.2709.4974-.7758.286-1.1881h0zm44.2004 13.706H51.8281c-.5178 0-.9375.4197-.9375.9375s.4197.9375.9375.9375h11.2322c.5178 0 .9375-.4197.9375-.9375s-.4197-.9375-.9375-.9375zM26.3082 16c-1.5619 0-2.982.7932-3.8039 2.0747-.1366-.0162-.2747-.0244-.4136-.0244-1.9282 0-3.4969 1.5687-3.4969 3.497s1.5687 3.497 3.4969 3.497h11.2039c.5178 0 .9375-.4198.9375-.9375s-.4197-.9375-.9375-.9375h-3.3234c.5397-.7448.8591-1.6591.8591-2.6472 0-2.4934-2.0287-4.5221-4.5221-4.5221h0zm-5.8395 5.5474c0-.8944.7275-1.622 1.6219-1.622.1969 0 .3896.0352.573.1044.4735.1788 1.0039-.0506 1.1976-.5186.4113-.9939 1.3717-1.6362 2.447-1.6362 1.4596 0 2.6471 1.1875 2.6471 2.6471s-1.1876 2.6472-2.6471 2.6472h-4.2176c-.8944 0-1.6219-.7276-1.6219-1.6219h0zM34.5 36.7734h5.9752c.5177 0 .9375-.4197.9375-.9375s-.4198-.9375-.9375-.9375H34.5c-.5178 0-.9375.4198-.9375.9375s.4197.9375.9375.9375zm17.8555-6.6373h7.1369c.5178 0 .9375-.4197.9375-.9375v-3.5433c0-.5178-.4197-.9375-.9375-.9375h-7.1369c-.5178 0-.9375.4197-.9375.9375v3.5433c0 .5178.4197.9375.9375.9375h0zm.9375-3.5433h5.2619v1.6683H53.293v-1.6683zm-.9375 11.4096h7.1369c.5178 0 .9375-.4198.9375-.9375v-3.5434c0-.5178-.4197-.9375-.9375-.9375h-7.1369c-.5178 0-.9375.4197-.9375.9375v3.5434c0 .5177.4197.9375.9375.9375zm.9375-3.5434h5.2619v1.6684H53.293V34.459zm-.9375 11.4096h7.1369c.5178 0 .9375-.4198.9375-.9375v-3.5434c0-.5178-.4197-.9375-.9375-.9375h-7.1369c-.5178 0-.9375.4197-.9375.9375v3.5434c0 .5177.4197.9375.9375.9375zm.9375-3.5434h5.2619v1.6684H53.293v-1.6684zM37.3679 23.1878c-.4012.0815-.708.4196-.7499.827s.1993.8025.5746.958c.3684.1528.8084.0493 1.0682-.254.2523-.2947.2973-.722.1119-1.0626-.1926-.3534-.6098-.5486-1.0048-.4684h0zm9.5567 40.3951c.4545.6935 1.5613.4513 1.7027-.3602.1497-.8593-.9079-1.4385-1.5533-.8546-.34.3078-.4031.8341-.1494 1.2148h0z"/></g><defs><clipPath id="A"><path fill="#fff" transform="translate(16 16)" d="M0 0h48v48H0z"/></clipPath></defs></svg>

<svg width="80" height="80" viewBox="0 0 80 80" fill="none" xmlns="http://www.w3.org/2000/svg">
<g clip-path="url(#clip0_126_2692)">
<path d="M0 0H80V80H0V0Z" fill="#A237EE" fill-opacity="0.1"/>
<mask id="mask0_126_2692" style="mask-type:luminance" maskUnits="userSpaceOnUse" x="16" y="16" width="48" height="48">
<path d="M16 16H64V64H16V16Z" fill="white"/>
</mask>
<g mask="url(#mask0_126_2692)">
<path d="M19.5529 54.5222C20.4075 54.5222 21.2099 54.2246 21.8435 53.6872C22.9551 54.1826 24.1604 54.4639 25.382 54.5135V58.2126C20.2811 60.2327 17.7931 62.2359 17.6697 62.3366C17.3627 62.5874 17.2468 63.0041 17.3799 63.3776C17.513 63.7511 17.8666 64.0001 18.2629 64.0001H43.5852C44.103 64.0001 44.5227 63.5804 44.5227 63.0626C44.5227 62.5448 44.103 62.1251 43.5852 62.1251H21.4547C22.4644 61.5627 23.7736 60.9061 25.3885 60.2348C25.4415 60.7023 25.8378 61.0658 26.3195 61.0658C26.8373 61.0658 27.257 60.6461 27.257 60.1283V59.5058C34.224 56.9581 41.7148 55.959 49.1072 55.9125C53.7306 55.8837 58.3548 56.2331 62.9325 56.8747C63.4862 56.9523 64.0001 56.5061 64.0001 55.946V20.8086C64.0001 20.2908 63.5804 19.8711 63.0626 19.8711H48.6062C48.0885 19.8711 47.6687 20.2908 47.6687 20.8086V54.0593L45.2828 54.1488V31.692C45.2828 31.1742 44.8631 30.7545 44.3453 30.7545H41.7522V28.7661C41.7522 28.2483 41.3325 27.8286 40.8147 27.8286H34.2888C33.771 27.8286 33.3513 28.2483 33.3513 28.7661V30.7545H30.7581C30.2403 30.7545 29.8206 31.1742 29.8206 31.692V36.1389C28.5887 35.5661 27.2166 35.2456 25.7709 35.2456C20.4563 35.2456 16.1326 39.5694 16.1326 44.884C16.1326 46.1851 16.386 47.4396 16.8868 48.6227C16.3223 49.2655 16 50.0997 16 50.9693C16 52.9284 17.5938 54.5222 19.5529 54.5222ZM28.8281 56.9913C28.2836 57.1632 27.7604 57.3378 27.257 57.5141V54.4071C28.1439 54.2691 29.0065 54.0074 29.8206 53.6302V56.6896L28.8281 56.9913ZM49.6375 54.0348H49.5437V50.4748H62.125V54.8735C57.9859 54.3358 53.8122 54.0348 49.6375 54.0348ZM62.125 21.7461V48.5998H49.5437V21.7461H62.125ZM31.6956 32.6295H34.2888C34.8065 32.6295 35.2263 32.2098 35.2263 31.692V29.7036H39.8772V31.692C39.8772 32.2098 40.2969 32.6295 40.8147 32.6295H43.4078V54.2686C39.4611 54.5726 35.5297 55.1796 31.6956 56.1705V53.9606C33.5236 54.3769 35.4737 53.7222 36.6827 52.2888H40.4752C40.993 52.2888 41.4127 51.8691 41.4127 51.3513C41.4127 50.8335 40.993 50.4138 40.4752 50.4138H37.6802C37.8041 49.9766 37.8719 49.516 37.8719 49.0395C37.8719 48.367 37.7385 47.716 37.4918 47.1174H40.4752C40.993 47.1174 41.4127 46.6977 41.4127 46.1799C41.4127 45.6621 40.993 45.2424 40.4752 45.2424H36.1492C35.9206 45.0421 35.673 44.861 35.4076 44.7029C35.3902 43.7683 35.2365 42.8359 34.9509 41.9458H40.4752C40.993 41.9458 41.4127 41.5261 41.4127 41.0083C41.4127 40.4905 40.993 40.0708 40.4752 40.0708H34.5001C34.3787 40.0708 34.263 40.0947 34.1565 40.1367C33.5343 39.036 32.6924 38.0595 31.6956 37.2818V32.6295ZM18.8599 48.419C18.2943 47.3157 18.0076 46.1264 18.0076 44.884C18.0076 40.6032 21.4902 37.1206 25.7709 37.1206C30.1323 37.1206 33.7158 40.8792 33.5253 45.2285C33.5093 45.5921 33.705 45.9297 34.0229 46.098C34.8729 46.5487 35.539 47.1231 35.8445 48.0708C36.1728 49.0887 35.9523 50.2317 35.2715 51.0564C34.1981 52.3565 32.2294 52.5825 30.8941 51.5561C30.5856 51.319 30.1629 51.297 29.8315 51.5008C29.0378 51.9891 28.1656 52.3264 27.257 52.5031V51.5147V46.9209C27.257 46.4004 27.4597 45.911 27.8279 45.5428L28.6652 44.7055C29.0313 44.3394 29.0313 43.7457 28.6652 43.3796C28.2991 43.0135 27.7055 43.0135 27.3393 43.3796L26.502 44.2169C25.7797 44.9392 25.382 45.8995 25.382 46.9208V47.8097L24.0308 46.4586C23.6647 46.0925 23.0711 46.0925 22.705 46.4586C22.3389 46.8247 22.3389 47.4183 22.705 47.7844L24.6371 49.7165C25.1175 50.1968 25.3819 50.8354 25.3819 51.5147V52.6365C24.2293 52.5786 23.0975 52.2649 22.0869 51.7188C21.684 51.501 21.1687 51.6136 20.8931 51.9787C20.5724 52.4035 20.0838 52.6471 19.5529 52.6471C18.6277 52.6471 17.875 51.8944 17.875 50.9692C17.875 50.4318 18.1363 49.9226 18.5739 49.6071C18.9497 49.3362 19.0713 48.8313 18.8599 48.419ZM63.0603 62.125H51.8281C51.3103 62.125 50.8906 62.5447 50.8906 63.0625C50.8906 63.5803 51.3103 64 51.8281 64H63.0603C63.5781 64 63.9978 63.5803 63.9978 63.0625C63.9978 62.5447 63.5781 62.125 63.0603 62.125ZM26.3082 16C24.7463 16 23.3262 16.7932 22.5043 18.0747C22.3677 18.0585 22.2296 18.0503 22.0907 18.0503C20.1625 18.0503 18.5938 19.619 18.5938 21.5473C18.5938 23.4756 20.1625 25.0443 22.0907 25.0443H33.2946C33.8124 25.0443 34.2321 24.6245 34.2321 24.1068C34.2321 23.5891 33.8124 23.1693 33.2946 23.1693H29.9712C30.5109 22.4245 30.8303 21.5102 30.8303 20.5221C30.8303 18.0287 28.8016 16 26.3082 16ZM20.4687 21.5474C20.4687 20.653 21.1962 19.9254 22.0906 19.9254C22.2875 19.9254 22.4802 19.9606 22.6636 20.0298C23.1371 20.2086 23.6675 19.9792 23.8612 19.5112C24.2725 18.5173 25.2329 17.875 26.3082 17.875C27.7678 17.875 28.9553 19.0625 28.9553 20.5221C28.9553 21.9817 27.7677 23.1693 26.3082 23.1693H22.0906C21.1962 23.1693 20.4687 22.4417 20.4687 21.5474ZM34.5 36.7734H40.4752C40.9929 36.7734 41.4127 36.3537 41.4127 35.8359C41.4127 35.3181 40.9929 34.8984 40.4752 34.8984H34.5C33.9822 34.8984 33.5625 35.3182 33.5625 35.8359C33.5625 36.3536 33.9822 36.7734 34.5 36.7734ZM52.3555 30.1361H59.4924C60.0102 30.1361 60.4299 29.7164 60.4299 29.1986V25.6553C60.4299 25.1375 60.0102 24.7178 59.4924 24.7178H52.3555C51.8377 24.7178 51.418 25.1375 51.418 25.6553V29.1986C51.418 29.7164 51.8377 30.1361 52.3555 30.1361ZM53.293 26.5928H58.5549V28.2611H53.293V26.5928ZM52.3555 38.0024H59.4924C60.0102 38.0024 60.4299 37.5826 60.4299 37.0649V33.5215C60.4299 33.0037 60.0102 32.584 59.4924 32.584H52.3555C51.8377 32.584 51.418 33.0037 51.418 33.5215V37.0649C51.418 37.5826 51.8377 38.0024 52.3555 38.0024ZM53.293 34.459H58.5549V36.1274H53.293V34.459ZM52.3555 45.8686H59.4924C60.0102 45.8686 60.4299 45.4488 60.4299 44.9311V41.3877C60.4299 40.8699 60.0102 40.4502 59.4924 40.4502H52.3555C51.8377 40.4502 51.418 40.8699 51.418 41.3877V44.9311C51.418 45.4488 51.8377 45.8686 52.3555 45.8686ZM53.293 42.3252H58.5549V43.9936H53.293V42.3252ZM37.3679 23.1878C36.9667 23.2693 36.6599 23.6074 36.618 24.0148C36.5761 24.4222 36.8173 24.8173 37.1926 24.9728C37.561 25.1256 38.001 25.0221 38.2608 24.7188C38.5131 24.4241 38.5581 23.9968 38.3727 23.6562C38.1801 23.3028 37.7629 23.1076 37.3679 23.1878ZM46.9246 63.5829C47.3791 64.2764 48.4859 64.0342 48.6273 63.2227C48.777 62.3634 47.7194 61.7842 47.074 62.3681C46.734 62.6759 46.6709 63.2022 46.9246 63.5829Z" fill="#A237EE"/>
</g>
</g>
<defs>
<clipPath id="clip0_126_2692">
<rect width="80" height="80" fill="white"/>
</clipPath>
</defs>
</svg>
